X: 5084
T: Bride's, The
R: jig
M: 6/8
K: Eminor
EFE G2A|BAG FEF|DED FEF|A2d AFD|
EFE G2A|BEG FGA|BdB AGF|E3 B3:|

